X: 1
T: The Braes Of Glendochart
T: Paddy Murphy's Wife
M: 4/4
L: 1/8
R: reel
K: Dmix
G|(3FED AF BGAF|EGcG ECCE|(3FED AF BGAF|1 Ddd^c dDD:|
g|fada fdad|egcg ecgc|fada fdad|(3B^cd AG FDDg|
fada fdad|egcg ecgc|afge fde^c|dABG FDD||
